src/actions/24/gnumeric-font.svg

<svg xmlns="http://www.w3.org/2000/svg" viewBox="0 0 24 24">
  <defs id="defs3051">
    <style type="text/css" id="current-color-scheme">
      .ColorScheme-Text {
        color:#363636;
      }
      </style>
  </defs>
 <path style="fill:currentColor;fill-opacity:1;stroke:none" 
     d="M 10.910156 5 L 7.5957031 14.59375 L 7.4726562 15 L 6 19 L 7.6582031 19 L 9.2832031 14.5625 L 14.716797 14.5625 L 16.341797 19 L 18 19 L 16.527344 15 L 16.404297 14.59375 L 13.089844 5 L 12.875 5 L 11.125 5 L 10.910156 5 z M 12.015625 6.9375 L 14.195312 13.28125 L 9.8046875 13.28125 L 12.015625 6.9375 z "
     class="ColorScheme-Text"
     />
</svg>

<svg xmlns="http://www.w3.org/2000/svg" viewBox="0 0 24 24">
    <path d="m10.91 5-3.314 9.594-.123.406L6 19h1.658l1.625-4.437h5.434L16.342 19H18l-1.473-4-.123-.406L13.09 5h-2.18zm1.106 1.938 2.18 6.343H9.804l2.21-6.344z" style="fill:currentColor;fill-opacity:1;stroke:none;color:#050505;opacity:.7"/>
</svg>
